src/icons/hourglass.svg

<svg viewBox="0 0 9 12" xmlns="http://www.w3.org/2000/svg">
<path fill-rule="evenodd" clip-rule="evenodd" d="M8.18875 1.30777C8.01571 3.63576 6.92156 4.42295 6.17756 4.95767C5.69853 5.30183 5.44845 5.49839 5.44845 5.86678C5.44845 6.23518 5.69757 6.43198 6.17756 6.77614C6.94988 7.33101 8.09755 8.15709 8.20411 10.6932H8.29435C8.61452 10.6913 8.87576 10.949 8.87827 11.2692V11.424C8.87576 11.7441 8.61452 12.0018 8.29435 11.9999H0.585117C0.431142 12.0012 0.282992 11.9412 0.17326 11.8331C0.0635286 11.7251 0.00120464 11.5779 0 11.424V11.2692C0.000951058 11.115 0.0631634 10.9676 0.172923 10.8593C0.282682 10.7511 0.430977 10.691 0.585117 10.6922H0.829435C0.935994 8.15709 2.08367 7.33077 2.85598 6.77614C3.33406 6.43198 3.58294 6.23446 3.58294 5.86606C3.58294 5.49767 3.33382 5.30087 2.85382 4.95671C2.10911 4.42175 1.01567 3.6348 0.842635 1.30681H0.583917C0.263747 1.30867 0.00250939 1.05098 0 0.730814V0.576015C0.00120464 0.42204 0.0635286 0.274851 0.17326 0.166829C0.282992 0.0588081 0.431142 -0.00119607 0.585117 1.80729e-05H8.29435C8.61452 -0.00184478 8.87576 0.25585 8.87827 0.576015V0.731774C8.87576 1.05194 8.61452 1.30963 8.29435 1.30777H8.18875ZM7.66627 10.6922C7.56955 8.43477 6.62708 7.75629 5.86125 7.20622V7.20598C5.37213 6.85486 4.91037 6.52318 4.91037 5.86678C4.91037 5.21052 5.37218 4.87884 5.86095 4.52781L5.86125 4.52759L5.8627 4.52654C6.59611 3.99898 7.4943 3.35288 7.65091 1.30753H1.38167C1.53935 3.354 2.43647 3.99959 3.17134 4.52759L3.17193 4.52802C3.66083 4.87922 4.12222 5.21065 4.12222 5.86678C4.12222 6.52305 3.66041 6.85472 3.17164 7.20576L3.17134 7.20598C2.40551 7.75605 1.46231 8.43453 1.36631 10.6922H7.66627ZM6.83516 3.10704L6.83504 3.10699L6.83516 3.1068V3.10704ZM6.83504 3.10699C6.08091 2.82813 5.28263 2.68773 4.47861 2.69256C3.69681 2.68807 2.92025 2.8203 2.18399 3.08328C2.47687 3.56652 2.87827 3.9749 3.35638 4.27607C3.86278 4.63991 4.43637 5.05223 4.43637 5.86678V5.88454H4.59525V5.86678C4.59525 5.05225 5.16895 4.63994 5.67475 4.27643L5.67525 4.27607C6.14557 3.97947 6.5422 3.57967 6.83504 3.10699ZM1.69199 10.5021C1.69799 10.42 1.70543 10.3404 1.71383 10.2621C2.28129 9.21461 3.39206 8.57782 4.58273 8.61742C5.77341 8.65701 6.83942 9.36619 7.33604 10.4491C7.33662 10.4577 7.33738 10.4662 7.33813 10.4747C7.33893 10.4837 7.33974 10.4928 7.34036 10.5021H1.69199Z" fill="#77788D"/>
</svg>

<svg viewBox="0 0 9 12" xmlns="http://www.w3.org/2000/svg"><path fill-rule="evenodd" clip-rule="evenodd" d="M8.189 1.308c-.173 2.328-1.267 3.115-2.011 3.65-.48.344-.73.54-.73.909 0 .368.25.565.73.91.772.554 1.92 1.38 2.026 3.916h.09a.58.58 0 01.584.576v.155a.58.58 0 01-.584.576H.585A.58.58 0 010 11.424v-.155a.58.58 0 01.585-.577H.83c.107-2.535 1.255-3.361 2.027-3.916.478-.344.727-.542.727-.91s-.25-.565-.73-.91c-.744-.534-1.837-1.321-2.01-3.65h-.26A.58.58 0 010 .732V.576A.58.58 0 01.585 0h7.71a.58.58 0 01.583.576v.156a.58.58 0 01-.584.576H8.19zm-.523 9.384C7.57 8.435 6.627 7.756 5.861 7.206c-.489-.351-.95-.683-.95-1.34 0-.655.461-.987.95-1.338l.002-.001c.733-.528 1.631-1.174 1.788-3.22H1.38C1.54 3.355 2.437 4 3.172 4.528v.001c.49.351.951.683.951 1.339 0 .656-.462.988-.95 1.339-.766.55-1.71 1.229-1.806 3.486h6.3zm-.83-7.585h-.001zm-.001 0a6.679 6.679 0 00-2.356-.414 6.707 6.707 0 00-2.295.39c.293.484.694.892 1.172 1.193.507.364 1.08.776 1.08 1.59v.019h.16v-.018c0-.815.573-1.227 1.079-1.59.47-.298.867-.697 1.16-1.17zm-5.143 7.395a7.08 7.08 0 01.022-.24 3.144 3.144 0 015.622.187l.002.026.002.027H1.692z" fill="#77788D"/></svg>
